icons/vagina_alt_fill.svg

<svg width="48" height="48" viewBox="0 0 48 48" fill="none" xmlns="http://www.w3.org/2000/svg">
<path fill-rule="evenodd" clip-rule="evenodd" d="M41.9999 25.8515C42.0078 20.1062 40.4209 13.8479 37.2949 6H10.705C7.57899 13.8479 5.99214 20.1062 6.00003 25.8515C6.00774 31.4661 7.53757 36.5114 10.5044 42.0001H37.4956C40.4623 36.5114 41.9922 31.4661 41.9999 25.8515ZM23.1433 42.0001V31.5464L16.1211 24.1732L17.3333 22.9004L23 28.8504V26C23 25.4477 23.4477 25 23.9999 25C24.5522 25 25 25.4477 25 26V28.8511L30.6673 22.9004L31.8795 24.1732L24.8575 31.5462V42.0001H23.1433Z" fill="black"/>
</svg>

<svg
  xmlns="http://www.w3.org/2000/svg"
  width="24"
  height="24"
  viewBox="0 0 24 24"
  fill="none"
  stroke="currentColor"
  stroke-width="2"
  stroke-linecap="round"
  stroke-linejoin="round"
>
  <path
    fill-rule="evenodd"
    d="M42 25.852c.008-5.746-1.58-12.004-4.705-19.852h-26.59C7.579 13.848 5.992 20.106 6 25.852c.008 5.614 1.538 10.66 4.504 16.148h26.992c2.966-5.489 4.496-10.534 4.504-16.148M23.143 42V31.546l-7.022-7.373 1.212-1.273L23 28.85V26a1 1 0 1 1 2 0v2.851l5.667-5.95 1.212 1.272-7.021 7.373V42z"
    clip-rule="evenodd"
  />
</svg>
